X: 16936
T: Hawk Polka, The
R: barndance
M: 4/4
K: Dmajor
F>G|A2 A2 F2 A2|d2 A2 f>ed>c|B2 B2 G2 B2|e>fg>f e>dc>B|
A2 (3ABA F2 A2|d2 A>d f2 d2|c2 B>c g2 c2|e2 d2 d2 F>G|
A4 F2- F>A|d2 A>d f>ed>c|B4 G2- G>B|e2 g>f e>dc>B|
A>BA>G F>DF>A|d2- d>e f>ed>c|B2 g>e c2 B>c|e2 d2 d2||
g2|f2 g>a b>a^g>b|a2 A2 d2 f2|e2 f>g g>ce>c|d>cd>e f2 A2|
f4 g>a b2|a2 A>d f2 a2|e2- e>f g2 A>c|e2 d2 d2- d>g|
f>ga>b b2 g>b|a2 A2 d>e f2|e>f g2 g2 c2|d>e f2 f2 A2|
f2 g>b b>fg>b|a2 c2 d2 f2|e4 g2- g>c|e2 d2 d2||
A2|A>af>d A>FD>F|A>af>d A2 F>G|A2 A>G E2 G2|B2 A>G F2 G2|
A2 f>d A2 D>F|A2 f>d A>Bc>d|B2- B>d c>de>f|e2 d2 d2 F>G|
(3AAA f>d A2 d>f|(3aaa f>d A4|A>A E2 E2 G2|B>B F2 F2 G2|
A>af>d A>FD>F|A>df>d A4|B>c d2 c>de>f|e2 d2 d2||

